!!!PDT:	1923
!!!LANG: Non-Tone
!!!LING_GROUP: Siouan
!!!REG: Dakotas
!!!COM: Anon.
!!!OTL: The Kettle is Burning
!!!ODT: <1918//
!!!MPN: Obsitamato [Bear-on-the-Flat, Flat Bear]
!!!MLC: Fort Berthold Reservation, North Dakota, United States of America
!! Song was recorded during either the summer of 1912, 1915, or 1918.
!!!AGN: monody
!!!SOCIAL_FUNCTION: Mandan and Hidatsa Miscellaneous Songs
!!!AMT: irregular
!!!RWG: Transcribed pitches, durations, and meters are only approximate.
!! Drum Tempo: MM80
!! Drum-rhythm: (4 4 4 4)
**kern
*ICvox
*Imale
*clefF4
*k[f#]
*M2/4
*MM80
=1-
8B
8e
8B
16B
16B
=2
4e
8.e
16B
*M3/4
=3
16e
16e
8B
16A
16A
8G
4G
*M2/4
=4
8G
16G
16E
8G
16G
16E
=5
8G
16G
16E
8E
16E
16D
=6
8E
8D
4BB
=7
2BB
*M3/4
=8
! added dot:
2.B
*M2/4
=9
8B
8e
8B
16B
16B
=10
4e
8.e
16B
*M3/4
=11
16e
16e
8B
16A
16A
8G
(8.G
16E)
*M2/4
=12
8G
16G
16E
8G
16G
16G
=13
8G
8E
8E
16E
16D
=14
8E
8D
4BB
=15
2BB
=16
4BB
4r
==
*-
!!!CNT: Mandan
!!!TXO: Mandan
!!!OCY: United States
!!!OCL: Frances Densmore
!!!YOR: Frances Densmore, "Mandan and Hidatsa Music",
!!!YOR: Bulletin 80, page 176, No. 108
!!!PPR: Smithsonian Institution, Bureau of American Ethnology
!!!PPR: Government Printing Office
!!!PDT: 1923
!!!PPP: Washington, DC, United States of America
!!!YEC: Electronic Copyright 2000 David Huron
!!!YER: August 2000
!!!YEN: United States of America
!!!ENC: David Huron
!!!RDT: August 18, 2000
!!!EEV: Release 1.0
!!!AIN: tom, vox
